X:0837
T:Bowman's Fancy.
N:perhaps should be D major?
M:6/8
L:1/8
Q:3/8=116
I: :| ||
Z:Jack Campin * www.campin.me.uk * 2009
K:D Mixolydian
A/G/|F>GA DEF|G>BG E2G|AFd AFD|DEE EFG|FAA  GBB|cec dcB|AFA BGE |DED D2:|
A   |dcd  Beg|fdB  ecA|dfa gfe|d3  c2A|B>GB EFG|FGA D2F|EFG A>Bc|DED D2
A   |dcd  Bef|fdB  ecA|dfa gfe|d3  c2A|BdB  cec|dfd efg|afd gec |ded d2|]
<end>
<start>
